X: 176
T:The First Month of Spring
M:2/2
L:1/8
R:Single Reel
Z:Rob Greenway, 18/4/2000
K:D
|dB~B2 A2FA|BAFA defe|dB~B2 ADFA|Beed egfe|!
dB~B2 BAFB|~A3B defg|afed ~f3e|dBAB dee2||!
af~f2 afbf|af~f2 afef|af~f2 ~a3f|egfe dBB2|!
af~f2 afbf|af~f2 afeg|fa~a2 fb~b2|bafe fgfe||!
<end>
<start>
